svg/user-remove.svg

<svg width="24" height="24" viewBox="0 0 24 24" fill="none" xmlns="http://www.w3.org/2000/svg">
<path d="M10 4C7.79086 4 6 5.79086 6 8C6 10.2091 7.79086 12 10 12C12.2091 12 14 10.2091 14 8C14 5.79086 12.2091 4 10 4ZM4 8C4 4.68629 6.68629 2 10 2C13.3137 2 16 4.68629 16 8C16 11.3137 13.3137 14 10 14C6.68629 14 4 11.3137 4 8ZM16 14C16 13.4477 16.4477 13 17 13H21C21.5523 13 22 13.4477 22 14C22 14.5523 21.5523 15 21 15H17C16.4477 15 16 14.5523 16 14ZM6.5 18C5.24054 18 4 19.2135 4 21C4 21.5523 3.55228 22 3 22C2.44772 22 2 21.5523 2 21C2 18.3682 3.89347 16 6.5 16H13.5C16.1065 16 18 18.3682 18 21C18 21.5523 17.5523 22 17 22C16.4477 22 16 21.5523 16 21C16 19.2135 14.7595 18 13.5 18H6.5Z" fill="#0D0D0D"/>
</svg>

<svg width="24" height="24" fill="none" xmlns="http://www.w3.org/2000/svg"><path d="M10 4a4 4 0 100 8 4 4 0 000-8zM4 8a6 6 0 1112 0A6 6 0 014 8zm12 6a1 1 0 011-1h4a1 1 0 110 2h-4a1 1 0 01-1-1zm-9.5 4C5.24 18 4 19.213 4 21a1 1 0 11-2 0c0-2.632 1.893-5 4.5-5h7c2.607 0 4.5 2.368 4.5 5a1 1 0 11-2 0c0-1.787-1.24-3-2.5-3h-7z" fill="#0D0D0D"/></svg>
